src/assets/filled/HeartTick.svg

<svg width="24" height="24" viewBox="0 0 24 24"  xmlns="http://www.w3.org/2000/svg">
<path d="M17.1999 12.4004C14.5499 12.4004 12.3999 14.5504 12.3999 17.2004C12.3999 18.1004 12.6499 18.9504 13.0999 19.6704C13.9299 21.0604 15.4499 22.0004 17.1999 22.0004C18.9499 22.0004 20.4799 21.0604 21.2999 19.6704C21.7399 18.9504 21.9999 18.1004 21.9999 17.2004C21.9999 14.5504 19.8499 12.4004 17.1999 12.4004ZM19.5799 16.5704L17.0199 18.9304C16.8799 19.0604 16.6899 19.1304 16.5099 19.1304C16.3199 19.1304 16.1299 19.0604 15.9799 18.9104L14.7999 17.7304C14.5099 17.4404 14.5099 16.9604 14.7999 16.6704C15.0899 16.3804 15.5699 16.3804 15.8599 16.6704L16.5299 17.3404L18.5599 15.4604C18.8599 15.1804 19.3399 15.2004 19.6199 15.5004C19.8999 15.8104 19.8799 16.2904 19.5799 16.5704Z" />
<path d="M22 8.72965C22 9.91965 21.81 11.0196 21.48 12.0396C21.42 12.2496 21.17 12.3096 20.99 12.1796C19.9 11.3696 18.57 10.9396 17.2 10.9396C13.73 10.9396 10.9 13.7696 10.9 17.2396C10.9 18.3196 11.18 19.3796 11.71 20.3196C11.87 20.5996 11.68 20.9597 11.38 20.8496C8.97 20.0296 4.1 17.0396 2.52 12.0396C2.19 11.0196 2 9.91965 2 8.72965C2 5.63965 4.49 3.13965 7.56 3.13965C9.37 3.13965 10.99 4.01965 12 5.36965C13.01 4.01965 14.63 3.13965 16.44 3.13965C19.51 3.13965 22 5.63965 22 8.72965Z" />
</svg>

<?xml version="1.0" encoding="UTF-8"?>
<svg width="24" height="24" viewBox="0 0 24 24" xmlns="http://www.w3.org/2000/svg">
 <path d="m17.2 12.4c-2.65 0-4.8 2.15-4.8 4.8 0 0.9 0.25 1.75 0.7 2.47 0.83 1.39 2.35 2.33 4.1 2.33s3.28-0.94 4.1-2.33c0.44-0.72 0.7-1.57 0.7-2.47 0-2.65-2.15-4.8-4.8-4.8zm2.38 4.17-2.56 2.36c-0.14 0.13-0.33 0.2-0.51 0.2-0.19 0-0.38-0.07-0.53-0.22l-1.18-1.18c-0.29-0.29-0.29-0.77 0-1.06s0.77-0.29 1.06 0l0.67 0.67 2.03-1.88c0.3-0.28 0.78-0.26 1.06 0.04 0.28 0.31 0.26 0.79-0.04 1.07z"/>
 <path d="m22 8.7296c0 1.19-0.19 2.29-0.52 3.31-0.06 0.21-0.31 0.27-0.49 0.14-1.09-0.81-2.42-1.24-3.79-1.24-3.47 0-6.3 2.83-6.3 6.3 0 1.08 0.28 2.14 0.81 3.08 0.16 0.28-0.03 0.6401-0.33 0.53-2.41-0.82-7.28-3.81-8.86-8.81-0.33-1.02-0.52-2.12-0.52-3.31 0-3.09 2.49-5.59 5.56-5.59 1.81 0 3.43 0.88 4.44 2.23 1.01-1.35 2.63-2.23 4.44-2.23 3.07 0 5.56 2.5 5.56 5.59z"/>
</svg>
